public/svgs/plus-circle.svg

<svg height="19" viewBox="0 0 19 19" width="19" xmlns="http://www.w3.org/2000/svg"><path d="m22.95 13.5c0 5.2191169-4.2310012 9.45-9.45 9.45-5.21901056 0-9.45-4.2308831-9.45-9.45 0-5.21901056 4.23098944-9.45 9.45-9.45 5.2189988 0 9.45 4.23098944 9.45 9.45zm-7.2290029 3.1791694c.2612061.2612921.6968691.2612921.9579882 0 .2613804-.2612921.2613804-.6967789 0-.9581581l-2.2208186-2.2208783 2.2208186-2.2210263c.2613804-.2612224.2613804-.6967092 0-.9580449-.2611191-.2612311-.6967821-.2612311-.9579882 0l-2.2209929 2.2210264-2.2210363-2.2210264c-.2613369-.2612311-.6968256-.2612311-.9579447 0-.2613368.2613357-.2613368.6968225 0 .9580449l2.2208186 2.2210263-2.2208186 2.2208783c-.2613368.2613792-.2613368.696866 0 .9581581.2611191.2612921.6966078.2612921.9579447 0l2.2210363-2.2209828z" fill="#b6b6ca" transform="matrix(.70710678 -.70710678 .70710678 .70710678 -9.591883 9.5)"/></svg>

<?xml version="1.0" encoding="UTF-8"?>
<svg width="19px" height="19px" viewBox="0 0 19 19" version="1.1" xmlns="http://www.w3.org/2000/svg" xmlns:xlink="http://www.w3.org/1999/xlink">
    <!-- Generator: Sketch 63.1 (92452) - https://sketch.com -->
    <desc>Created with Sketch.</desc>
    <g id="Page-1" stroke="none" stroke-width="1" fill="none" fill-rule="evenodd">
        <g id="Home-menu" transform="translate(-330.000000, -222.000000)" fill="#B6B6CA" fill-rule="nonzero">
            <g id="Icon" transform="translate(326.000000, 218.000000)">
                <path d="M22.95,13.5 C22.95,18.7191169 18.7189988,22.95 13.5,22.95 C8.28098944,22.95 4.05,18.7191169 4.05,13.5 C4.05,8.28098944 8.28098944,4.05 13.5,4.05 C18.7189988,4.05 22.95,8.28098944 22.95,13.5 Z M15.7209971,16.6791694 C15.9822032,16.9404615 16.4178662,16.9404615 16.6789853,16.6791694 C16.9403657,16.4178773 16.9403657,15.9823905 16.6789853,15.7210113 L14.4581667,13.500133 L16.6789853,11.2791067 C16.9403657,11.0178843 16.9403657,10.5823975 16.6789853,10.3210618 C16.4178662,10.0598307 15.9822032,10.0598307 15.7209971,10.3210618 L13.5000042,12.5420882 L11.2789679,10.3210618 C11.017631,10.0598307 10.5821423,10.0598307 10.3210232,10.3210618 C10.0596864,10.5823975 10.0596864,11.0178843 10.3210232,11.2791067 L12.5418418,13.500133 L10.3210232,15.7210113 C10.0596864,15.9823905 10.0596864,16.4178773 10.3210232,16.6791694 C10.5821423,16.9404615 11.017631,16.9404615 11.2789679,16.6791694 L13.5000042,14.4581866 L15.7209971,16.6791694 Z" id="Shape" transform="translate(13.500000, 13.500000) rotate(-45.000000) translate(-13.500000, -13.500000) "></path>
            </g>
        </g>
    </g>
</svg>
